;FLAVOR:Marlin
;TIME:593
;Filament used: 1.04737m
;Layer height: 0.3
;MINX:101.05
;MINY:101.05
;MINZ:0.3
;MAXX:133.95
;MAXY:133.95
;MAXZ:3
;TARGET_MACHINE.NAME:Creality Ender-3
;Generated with Cura_SteamEngine 5.6.0
M140 S60
M105
M190 S60
M104 S220
M105
M109 S220
M82 ;absolute extrusion mode
; Ender 3 Custom Start G-code
G92 E0 ; Reset Extruder
G28 ; Home all axes
BED_MESH_PROFILE LOAD="default" ; Get default bed profile
G1 Z2.0 F3000 ; Move Z Axis up little to prevent scratching of Heat Bed
G1 X5.1 Y20 Z0.3 F5000.0 ; Move to start position
G1 X5.1 Y200.0 Z0.3 F1500.0 E15 ; Draw the first line
G1 X5.4 Y200.0 Z0.3 F5000.0 ; Move to side a little
G1 X5.4 Y20 Z0.3 F1500.0 E30 ; Draw the second line
G92 E0 ; Reset Extruder
G1 Z2.0 F3000 ; Move Z Axis up little to prevent scratching of Heat Bed
G1 X5 Y20 Z0.3 F5000.0 ; Move over to prevent blob squish
G92 E0
G92 E0
G1 F3000 E-4
;LAYER_COUNT:10
;LAYER:0
M107
G0 F7500 X101.497 Y101.463 Z0.3
;TYPE:SKIRT
G1 F3000 E0
G1 F1500 X101.729 Y101.282 E0.01468
G1 X102.186 Y101.091 E0.03939
G1 X102.5 Y101.05 E0.05519
G1 X132.5 Y101.05 E1.5519
G1 X132.773 Y101.084 E1.56562
G1 X133.022 Y101.156 E1.57855
G1 X133.363 Y101.349 E1.5981
G1 X133.537 Y101.497 E1.6095
G1 X133.718 Y101.729 E1.62418
G1 X133.909 Y102.186 E1.64889
G1 X133.95 Y102.5 E1.66469
G1 X133.95 Y132.5 E3.16139
G1 X133.916 Y132.773 E3.17512
G1 X133.844 Y133.022 E3.18805
G1 X133.651 Y133.363 E3.2076
G1 X133.503 Y133.537 E3.219
G1 X133.271 Y133.718 E3.23368
G1 X132.814 Y133.909 E3.25839
G1 X132.5 Y133.95 E3.27419
G1 X102.5 Y133.95 E4.77089
G1 X102.227 Y133.916 E4.78462
G1 X101.978 Y133.844 E4.79755
G1 X101.637 Y133.651 E4.8171
G1 X101.463 Y133.503 E4.82849
G1 X101.282 Y133.271 E4.84317
G1 X101.091 Y132.814 E4.86788
G1 X101.05 Y132.5 E4.88368
G1 X101.05 Y102.5 E6.38039
G1 X101.084 Y102.227 E6.39411
G1 X101.156 Y101.978 E6.40705
G1 X101.349 Y101.637 E6.42659
G1 X101.497 Y101.463 E6.43799
G0 F7500 X101.717 Y101.799
G1 F1500 X101.951 Y101.615 E6.45284
G1 X102.243 Y101.487 E6.46875
G1 X102.5 Y101.45 E6.4817
G1 X132.5 Y101.45 E7.97841
G1 X132.858 Y101.521 E7.99662
G1 X133.201 Y101.717 E8.01633
G1 X133.385 Y101.951 E8.03118
G1 X133.513 Y102.243 E8.04708
G1 X133.55 Y102.5 E8.06004
G1 X133.55 Y132.5 E9.55674
G1 X133.479 Y132.858 E9.57495
G1 X133.283 Y133.201 E9.59466
G1 X133.049 Y133.385 E9.60951
G1 X132.757 Y133.513 E9.62542
G1 X132.5 Y133.55 E9.63837
G1 X102.5 Y133.55 E11.13508
G1 X102.142 Y133.479 E11.15329
G1 X101.799 Y133.283 E11.173
G1 X101.615 Y133.049 E11.18785
G1 X101.487 Y132.757 E11.20375
G1 X101.45 Y132.5 E11.21671
G1 X101.45 Y102.5 E12.71341
G1 X101.521 Y102.142 E12.73162
G1 X101.717 Y101.799 E12.75133
G0 F7500 X102.289 Y102.366
G1 F1500 X102.421 Y102.25 E12.7601
G1 X132.5 Y102.25 E14.26075
G1 X132.634 Y102.289 E14.26771
G1 X132.75 Y102.421 E14.27647
G1 X132.75 Y132.5 E15.77712
G1 X132.711 Y132.634 E15.78409
G1 X132.579 Y132.75 E15.79285
G1 X102.5 Y132.75 E17.2935
G1 X102.366 Y132.711 E17.30046
G1 X102.25 Y132.579 E17.30923
G1 X102.25 Y102.5 E18.80988
G1 X102.289 Y102.366 E18.81684
G0 F7500 X102.025 Y102.065
G1 F1500 X102.309 Y101.882 E18.83369
G1 X102.5 Y101.85 E18.84336
G1 X132.5 Y101.85 E20.34006
G1 X132.746 Y101.905 E20.35264
G1 X132.935 Y102.025 E20.36381
G1 X133.118 Y102.309 E20.38066
G1 X133.15 Y102.5 E20.39033
G1 X133.15 Y132.5 E21.88703
G1 X133.095 Y132.746 E21.89961
G1 X132.975 Y132.935 E21.91078
G1 X132.691 Y133.118 E21.92763
G1 X132.5 Y133.15 E21.93729
G1 X102.5 Y133.15 E23.434
G1 X102.254 Y133.095 E23.44658
G1 X102.065 Y132.975 E23.45775
G1 X101.882 Y132.691 E23.4746
G1 X101.85 Y132.5 E23.48426
G1 X101.85 Y102.5 E24.98097
G1 X101.905 Y102.254 E24.99355
G1 X102.025 Y102.065 E25.00471
G1 F3000 E21.00471
;MESH:EM_Cube-Unlabeled.stl
G0 F7500 X131.5 Y131.5
;TYPE:WALL-INNER
G1 F3000 E25.00471
G1 F1500 X131.5 Y103.5 E26.54133
G1 X103.5 Y103.5 E28.07795
G1 X103.5 Y131.5 E29.61457
G1 X131.5 Y131.5 E31.15119
G0 F7500 X131.9 Y131.9
G1 F1500 X131.9 Y103.1 E32.73171
G1 X103.1 Y103.1 E34.31223
G1 X103.1 Y131.9 E35.89275
G1 X131.9 Y131.9 E37.47327
G0 F7500 X132.3 Y132.3
;TYPE:WALL-OUTER
G1 F1500 X132.3 Y102.7 E39.0977
G1 X102.7 Y102.7 E40.72212
G1 X102.7 Y132.3 E42.34655
G1 X132.3 Y132.3 E43.97097
G0 F7500 X132.3 Y131.9
G0 X131.14 Y131.14
;TYPE:SKIN
G1 F1500 X103.86 Y131.14 E45.46808
G1 X103.86 Y103.86 E46.96518
G1 X131.14 Y103.86 E48.46229
G1 X131.14 Y131.14 E49.95939
G1 F3000 E45.95939
G0 F7500 X130.939 Y104.352
G1 F3000 E49.95939
G1 F1500 X130.647 Y104.059 E49.9821
G0 F7500 X130.081 Y104.059
G1 F1500 X130.939 Y104.918 E50.04872
G0 F7500 X130.939 Y105.484
G1 F1500 X129.515 Y104.059 E50.15928
G0 F7500 X128.95 Y104.059
G1 F1500 X130.939 Y106.049 E50.31369
G0 F7500 X130.939 Y106.615
G1 F1500 X128.384 Y104.059 E50.51202
G0 F7500 X127.818 Y104.059
G1 F1500 X130.939 Y107.181 E50.75429
G0 F7500 X130.939 Y107.746
G1 F1500 X127.253 Y104.059 E51.0404
G0 F7500 X126.687 Y104.059
G1 F1500 X130.939 Y108.312 E51.37044
G0 F7500 X130.939 Y108.878
G1 F1500 X126.121 Y104.059 E51.74441
G0 F7500 X125.556 Y104.059
G1 F1500 X130.939 Y109.443 E52.16223
G0 F7500 X130.939 Y110.009
G1 F1500 X124.99 Y104.059 E52.62397
G0 F7500 X124.424 Y104.059
G1 F1500 X130.939 Y110.575 E53.12965
G0 F7500 X130.939 Y111.14
G1 F1500 X123.858 Y104.059 E53.67921
G0 F7500 X123.293 Y104.059
G1 F1500 X130.939 Y111.706 E54.27266
G0 F7500 X130.939 Y112.272
G1 F1500 X122.727 Y104.059 E54.91004
G0 F7500 X122.161 Y104.059
G1 F1500 X130.939 Y112.837 E55.59131
G0 F7500 X130.939 Y113.403
G1 F1500 X121.596 Y104.059 E56.31647
G0 F7500 X121.03 Y104.059
G1 F1500 X130.939 Y113.969 E57.08555
G0 F7500 X130.939 Y114.535
G1 F1500 X120.464 Y104.059 E57.89857
G0 F7500 X119.899 Y104.059
G1 F1500 X130.939 Y115.1 E58.75543
G0 F7500 X130.939 Y115.666
G1 F1500 X119.333 Y104.059 E59.65622
G0 F7500 X118.767 Y104.059
G1 F1500 X130.939 Y116.232 E60.60094
G0 F7500 X130.939 Y116.797
G1 F1500 X118.202 Y104.059 E61.58951
G0 F7500 X117.636 Y104.059
G1 F1500 X130.939 Y117.363 E62.62201
G0 F7500 X130.939 Y117.929
G1 F1500 X117.07 Y104.059 E63.69843
G0 F7500 X116.505 Y104.059
G1 F1500 X130.939 Y118.494 E64.81871
G0 F7500 X130.939 Y119.06
G1 F1500 X115.939 Y104.059 E65.98291
G0 F7500 X115.373 Y104.059
G1 F1500 X130.939 Y119.626 E67.19104
G0 F7500 X130.939 Y120.191
G1 F1500 X114.807 Y104.059 E68.44306
G0 F7500 X114.242 Y104.059
G1 F1500 X130.939 Y120.757 E69.73897
G0 F7500 X130.939 Y121.323
G1 F1500 X113.676 Y104.059 E71.07881
G0 F7500 X113.11 Y104.059
G1 F1500 X130.939 Y121.888 E72.46253
G0 F7500 X130.939 Y122.454
G1 F1500 X112.545 Y104.059 E73.89015
G0 F7500 X111.979 Y104.059
G1 F1500 X130.939 Y123.02 E75.36169
G0 F7500 X130.939 Y123.586
G1 F1500 X111.413 Y104.059 E76.87716
G0 F7500 X110.848 Y104.059
G1 F1500 X130.939 Y124.151 E78.43648
G0 F7500 X130.939 Y124.717
G1 F1500 X110.282 Y104.059 E80.03973
G0 F7500 X109.716 Y104.059
G1 F1500 X130.939 Y125.283 E81.6869
G0 F7500 X130.939 Y125.848
G1 F1500 X109.151 Y104.059 E83.37793
G0 F7500 X108.585 Y104.059
G1 F1500 X130.939 Y126.414 E85.11288
G0 F7500 X130.939 Y126.98
G1 F1500 X108.019 Y104.059 E86.89176
G0 F7500 X107.454 Y104.059
G1 F1500 X130.939 Y127.545 E88.7145
G0 F7500 X130.939 Y128.111
G1 F1500 X106.888 Y104.059 E90.58116
G0 F7500 X106.322 Y104.059
G1 F1500 X130.939 Y128.677 E92.49174
G0 F7500 X130.939 Y129.242
G1 F1500 X105.757 Y104.059 E94.44618
G0 F7500 X105.191 Y104.059
G1 F1500 X130.939 Y129.808 E96.44455
G0 F7500 X130.939 Y130.374
G1 F1500 X104.625 Y104.059 E98.48684
G0 F7500 X104.059 Y104.059
G1 F1500 X130.939 Y130.939 E100.57302
G0 F7500 X130.374 Y130.939
G1 F1500 X104.059 Y104.625 E102.61531
G0 F7500 X104.059 Y105.191
G1 F1500 X129.808 Y130.939 E104.61368
G0 F7500 X129.242 Y130.939
G1 F1500 X104.059 Y105.757 E106.56812
G0 F7500 X104.059 Y106.322
G1 F1500 X128.677 Y130.939 E108.4787
G0 F7500 X128.111 Y130.939
G1 F1500 X104.059 Y106.888 E110.34536
G0 F7500 X104.059 Y107.454
G1 F1500 X127.545 Y130.939 E112.1681
G0 F7500 X126.98 Y130.939
G1 F1500 X104.059 Y108.019 E113.94698
G0 F7500 X104.059 Y108.585
G1 F1500 X126.414 Y130.939 E115.68193
G0 F7500 X125.848 Y130.939
G1 F1500 X104.059 Y109.151 E117.37296
G0 F7500 X104.059 Y109.716
G1 F1500 X125.283 Y130.939 E119.02013
G0 F7500 X124.717 Y130.939
G1 F1500 X104.059 Y110.282 E120.62338
G0 F7500 X104.059 Y110.848
G1 F1500 X124.151 Y130.939 E122.1827
G0 F7500 X123.586 Y130.939
G1 F1500 X104.059 Y111.413 E123.69817
G0 F7500 X104.059 Y111.979
G1 F1500 X123.02 Y130.939 E125.16971
G0 F7500 X122.454 Y130.939
G1 F1500 X104.059 Y112.545 E126.59733
G0 F7500 X104.059 Y113.11
G1 F1500 X121.888 Y130.939 E127.98105
G0 F7500 X121.323 Y130.939
G1 F1500 X104.059 Y113.676 E129.32089
G0 F7500 X104.059 Y114.242
G1 F1500 X120.757 Y130.939 E130.6168
G0 F7500 X120.191 Y130.939
G1 F1500 X104.059 Y114.807 E131.86882
G0 F7500 X104.059 Y115.373
G1 F1500 X119.626 Y130.939 E133.07695
G0 F7500 X119.06 Y130.939
G1 F1500 X104.059 Y115.939 E134.24115
G0 F7500 X104.059 Y116.505
G1 F1500 X118.494 Y130.939 E135.36143
G0 F7500 X117.929 Y130.939
G1 F1500 X104.059 Y117.07 E136.43785
G0 F7500 X104.059 Y117.636
G1 F1500 X117.363 Y130.939 E137.47035
G0 F7500 X116.797 Y130.939
G1 F1500 X104.059 Y118.202 E138.45892
G0 F7500 X104.059 Y118.767
G1 F1500 X116.232 Y130.939 E139.40364
G0 F7500 X115.666 Y130.939
G1 F1500 X104.059 Y119.333 E140.30443
G0 F7500 X104.059 Y119.899
G1 F1500 X115.1 Y130.939 E141.16129
G0 F7500 X114.535 Y130.939
G1 F1500 X104.059 Y120.464 E141.97431
G0 F7500 X104.059 Y121.03
G1 F1500 X113.969 Y130.939 E142.74339
G0 F7500 X113.403 Y130.939
G1 F1500 X104.059 Y121.596 E143.46855
G0 F7500 X104.059 Y122.161
G1 F1500 X112.837 Y130.939 E144.14982
G0 F7500 X112.272 Y130.939
G1 F1500 X104.059 Y122.727 E144.7872
G0 F7500 X104.059 Y123.293
G1 F1500 X111.706 Y130.939 E145.38065
G0 F7500 X111.14 Y130.939
G1 F1500 X104.059 Y123.858 E145.93021
G0 F7500 X104.059 Y124.424
G1 F1500 X110.575 Y130.939 E146.43589
G0 F7500 X110.009 Y130.939
G1 F1500 X104.059 Y124.99 E146.89763
G0 F7500 X104.059 Y125.556
G1 F1500 X109.443 Y130.939 E147.31545
G0 F7500 X108.878 Y130.939
G1 F1500 X104.059 Y126.121 E147.68942
G0 F7500 X104.059 Y126.687
G1 F1500 X108.312 Y130.939 E148.01946
G0 F7500 X107.746 Y130.939
G1 F1500 X104.059 Y127.253 E148.30557
G0 F7500 X104.059 Y127.818
G1 F1500 X107.181 Y130.939 E148.54784
G0 F7500 X106.615 Y130.939
G1 F1500 X104.059 Y128.384 E148.74617
G0 F7500 X104.059 Y128.95
G1 F1500 X106.049 Y130.939 E148.90058
G0 F7500 X105.484 Y130.939
G1 F1500 X104.059 Y129.515 E149.01113
G0 F7500 X104.059 Y130.081
G1 F1500 X104.918 Y130.939 E149.07776
G0 F7500 X104.352 Y130.939
G1 F1500 X104.059 Y130.647 E149.10046
G1 F3000 E145.10046
;MESH:NONMESH
G0 F300 X104.059 Y130.647 Z0.6
G0 F7500 X131.5 Y131.5
;TIME_ELAPSED:125.616082
;LAYER:1
M106 S127.5
;TYPE:WALL-INNER
;MESH:EM_Cube-Unlabeled.stl
G1 F3000 E149.10046
G1 F2250 X131.5 Y103.5 E150.63708
G1 X103.5 Y103.5 E152.1737
G1 X103.5 Y131.5 E153.71032
G1 X131.5 Y131.5 E155.24694
G0 F11250 X131.9 Y131.9
G1 F2250 X131.9 Y103.1 E156.82746
G1 X103.1 Y103.1 E158.40798
G1 X103.1 Y131.9 E159.9885
G1 X131.9 Y131.9 E161.56902
G0 F11250 X132.3 Y132.3
;TYPE:WALL-OUTER
G1 F2250 X132.3 Y102.7 E163.19345
G1 X102.7 Y102.7 E164.81787
G1 X102.7 Y132.3 E166.4423
G1 X132.3 Y132.3 E168.06672
G0 F11250 X132.3 Y131.9
G0 X131.14 Y131.14
;TYPE:SKIN
G1 F2250 X103.86 Y131.14 E169.56383
G1 X103.86 Y103.86 E171.06093
G1 X131.14 Y103.86 E172.55804
G1 X131.14 Y131.14 E174.05515
G1 F3000 E170.05515
G0 F11250 X104.677 Y104.059
G1 F3000 E174.05515
G1 F2250 X104.059 Y104.677 E174.10311
G0 F11250 X104.059 Y105.243
G1 F2250 X105.243 Y104.059 E174.195
G0 F11250 X105.809 Y104.059
G1 F2250 X104.059 Y105.809 E174.33082
G0 F11250 X104.059 Y106.375
G1 F2250 X106.375 Y104.059 E174.51057
G0 F11250 X106.94 Y104.059
G1 F2250 X104.059 Y106.94 E174.73416
G0 F11250 X104.059 Y107.506
G1 F2250 X107.506 Y104.059 E175.00169
G0 F11250 X108.072 Y104.059
G1 F2250 X104.059 Y108.072 E175.31314
G0 F11250 X104.059 Y108.637
G1 F2250 X108.637 Y104.059 E175.66844
G0 F11250 X109.203 Y104.059
G1 F2250 X104.059 Y109.203 E176.06767
G0 F11250 X104.059 Y109.769
G1 F2250 X109.769 Y104.059 E176.51083
G0 F11250 X110.334 Y104.059
G1 F2250 X104.059 Y110.334 E176.99784
G0 F11250 X104.059 Y110.9
G1 F2250 X110.9 Y104.059 E177.52878
G0 F11250 X111.466 Y104.059
G1 F2250 X104.059 Y111.466 E178.10364
G0 F11250 X104.059 Y112.031
G1 F2250 X112.031 Y104.059 E178.72236
G0 F11250 X112.597 Y104.059
G1 F2250 X104.059 Y112.597 E179.385
G0 F11250 X104.059 Y113.163
G1 F2250 X113.163 Y104.059 E180.09157
G0 F11250 X113.728 Y104.059
G1 F2250 X104.059 Y113.728 E180.84199
G0 F11250 X104.059 Y114.294
G1 F2250 X114.294 Y104.059 E181.63634
G0 F11250 X114.86 Y104.059
G1 F2250 X104.059 Y114.86 E182.47461
G0 F11250 X104.059 Y115.425
G1 F2250 X115.425 Y104.059 E183.35674
G0 F11250 X115.991 Y104.059
G1 F2250 X104.059 Y115.991 E184.28279
G0 F11250 X104.059 Y116.557
G1 F2250 X116.557 Y104.059 E185.25277
G0 F11250 X117.123 Y104.059
G1 F2250 X104.059 Y117.123 E186.26668
G0 F11250 X104.059 Y117.688
G1 F2250 X117.688 Y104.059 E187.32444
G0 F11250 X118.254 Y104.059
G1 F2250 X104.059 Y118.254 E188.42613
G0 F11250 X104.059 Y118.82
G1 F2250 X118.82 Y104.059 E189.57175
G0 F11250 X119.385 Y104.059
G1 F2250 X104.059 Y119.385 E190.76121
G0 F11250 X104.059 Y119.951
G1 F2250 X119.951 Y104.059 E191.9946
G0 F11250 X120.517 Y104.059
G1 F2250 X104.059 Y120.517 E193.27192
G0 F11250 X104.059 Y121.082
G1 F2250 X121.082 Y104.059 E194.5931
G0 F11250 X121.648 Y104.059
G1 F2250 X104.059 Y121.648 E195.95819
G0 F11250 X104.059 Y122.214
G1 F2250 X122.214 Y104.059 E197.36722
G0 F11250 X122.779 Y104.059
G1 F2250 X104.059 Y122.779 E198.8201
G0 F11250 X104.059 Y123.345
G1 F2250 X123.345 Y104.059 E200.3169
G0 F11250 X123.911 Y104.059
G1 F2250 X104.059 Y123.911 E201.85763
G0 F11250 X104.059 Y124.476
G1 F2250 X124.476 Y104.059 E203.44222
G0 F11250 X125.042 Y104.059
G1 F2250 X104.059 Y125.042 E205.07073
G0 F11250 X104.059 Y125.608
G1 F2250 X125.608 Y104.059 E206.74317
G0 F11250 X126.174 Y104.059
G1 F2250 X104.059 Y126.174 E208.45953
G0 F11250 X104.059 Y126.739
G1 F2250 X126.739 Y104.059 E210.21975
G0 F11250 X127.305 Y104.059
G1 F2250 X104.059 Y127.305 E212.02389
G0 F11250 X104.059 Y127.871
G1 F2250 X127.871 Y104.059 E213.87196
G0 F11250 X128.436 Y104.059
G1 F2250 X104.059 Y128.436 E215.76389
G0 F11250 X104.059 Y129.002
G1 F2250 X129.002 Y104.059 E217.69974
G0 F11250 X129.568 Y104.059
G1 F2250 X104.059 Y129.568 E219.67951
G0 F11250 X104.059 Y130.133
G1 F2250 X130.133 Y104.059 E221.70314
G0 F11250 X130.699 Y104.059
G1 F2250 X104.059 Y130.699 E223.7707
G0 F11250 X104.385 Y130.939
G1 F2250 X130.939 Y104.385 E225.83158
G0 F11250 X130.939 Y104.95
G1 F2250 X104.95 Y130.939 E227.84861
G0 F11250 X105.516 Y130.939
G1 F2250 X130.939 Y105.516 E229.82171
G0 F11250 X130.939 Y106.082
G1 F2250 X106.082 Y130.939 E231.75089
G0 F11250 X106.647 Y130.939
G1 F2250 X130.939 Y106.647 E233.63621
G0 F11250 X130.939 Y107.213
G1 F2250 X107.213 Y130.939 E235.47761
G0 F11250 X107.779 Y130.939
G1 F2250 X130.939 Y107.779 E237.27508
G0 F11250 X130.939 Y108.345
G1 F2250 X108.345 Y130.939 E239.02862
G0 F11250 X108.91 Y130.939
G1 F2250 X130.939 Y108.91 E240.73831
G0 F11250 X130.939 Y109.476
G1 F2250 X109.476 Y130.939 E242.40407
G0 F11250 X110.042 Y130.939
G1 F2250 X130.939 Y110.042 E244.02591
G0 F11250 X130.939 Y110.607
G1 F2250 X110.607 Y130.939 E245.6039
G0 F11250 X111.173 Y130.939
G1 F2250 X130.939 Y111.173 E247.13795
G0 F11250 X130.939 Y111.739
G1 F2250 X111.739 Y130.939 E248.62808
G0 F11250 X112.304 Y130.939
G1 F2250 X130.939 Y112.304 E250.07436
G0 F11250 X130.939 Y112.87
G1 F2250 X112.87 Y130.939 E251.47672
G0 F11250 X113.436 Y130.939
