;FLAVOR:Marlin
;TIME:593
;Filament used: 0.954424m
;Layer height: 0.3
;MINX:101.05
;MINY:101.05
;MINZ:0.3
;MAXX:133.95
;MAXY:133.95
;MAXZ:3
;TARGET_MACHINE.NAME:Creality Ender-3
;Generated with Cura_SteamEngine 5.6.0
M140 S60
M105
M190 S60
M104 S220
M105
M109 S220
M82 ;absolute extrusion mode
; Ender 3 Custom Start G-code
G92 E0 ; Reset Extruder
G28 ; Home all axes
BED_MESH_PROFILE LOAD="default" ; Get default bed profile
G1 Z2.0 F3000 ; Move Z Axis up little to prevent scratching of Heat Bed
G1 X5.1 Y20 Z0.3 F5000.0 ; Move to start position
G1 X5.1 Y200.0 Z0.3 F1500.0 E15 ; Draw the first line
G1 X5.4 Y200.0 Z0.3 F5000.0 ; Move to side a little
G1 X5.4 Y20 Z0.3 F1500.0 E30 ; Draw the second line
G92 E0 ; Reset Extruder
G1 Z2.0 F3000 ; Move Z Axis up little to prevent scratching of Heat Bed
G1 X5 Y20 Z0.3 F5000.0 ; Move over to prevent blob squish
G92 E0
G92 E0
G1 F3000 E-4
;LAYER_COUNT:10
;LAYER:0
M107
G0 F7500 X101.497 Y101.463 Z0.3
;TYPE:SKIRT
G1 F3000 E0
G1 F1500 X101.729 Y101.282 E0.01468
G1 X102.186 Y101.091 E0.03939
G1 X102.5 Y101.05 E0.05519
G1 X132.5 Y101.05 E1.5519
G1 X132.773 Y101.084 E1.56562
G1 X133.022 Y101.156 E1.57855
G1 X133.363 Y101.349 E1.5981
G1 X133.537 Y101.497 E1.6095
G1 X133.718 Y101.729 E1.62418
G1 X133.909 Y102.186 E1.64889
G1 X133.95 Y102.5 E1.66469
G1 X133.95 Y132.5 E3.16139
G1 X133.916 Y132.773 E3.17512
G1 X133.844 Y133.022 E3.18805
G1 X133.651 Y133.363 E3.2076
G1 X133.503 Y133.537 E3.219
G1 X133.271 Y133.718 E3.23368
G1 X132.814 Y133.909 E3.25839
G1 X132.5 Y133.95 E3.27419
G1 X102.5 Y133.95 E4.77089
G1 X102.227 Y133.916 E4.78462
G1 X101.978 Y133.844 E4.79755
G1 X101.637 Y133.651 E4.8171
G1 X101.463 Y133.503 E4.82849
G1 X101.282 Y133.271 E4.84317
G1 X101.091 Y132.814 E4.86788
G1 X101.05 Y132.5 E4.88368
G1 X101.05 Y102.5 E6.38039
G1 X101.084 Y102.227 E6.39411
G1 X101.156 Y101.978 E6.40705
G1 X101.349 Y101.637 E6.42659
G1 X101.497 Y101.463 E6.43799
G0 F7500 X101.717 Y101.799
G1 F1500 X101.951 Y101.615 E6.45284
G1 X102.243 Y101.487 E6.46875
G1 X102.5 Y101.45 E6.4817
G1 X132.5 Y101.45 E7.97841
G1 X132.858 Y101.521 E7.99662
G1 X133.201 Y101.717 E8.01633
G1 X133.385 Y101.951 E8.03118
G1 X133.513 Y102.243 E8.04708
G1 X133.55 Y102.5 E8.06004
G1 X133.55 Y132.5 E9.55674
G1 X133.479 Y132.858 E9.57495
G1 X133.283 Y133.201 E9.59466
G1 X133.049 Y133.385 E9.60951
G1 X132.757 Y133.513 E9.62542
G1 X132.5 Y133.55 E9.63837
G1 X102.5 Y133.55 E11.13508
G1 X102.142 Y133.479 E11.15329
G1 X101.799 Y133.283 E11.173
G1 X101.615 Y133.049 E11.18785
G1 X101.487 Y132.757 E11.20375
G1 X101.45 Y132.5 E11.21671
G1 X101.45 Y102.5 E12.71341
G1 X101.521 Y102.142 E12.73162
G1 X101.717 Y101.799 E12.75133
G0 F7500 X102.289 Y102.366
G1 F1500 X102.421 Y102.25 E12.7601
G1 X132.5 Y102.25 E14.26075
G1 X132.634 Y102.289 E14.26771
G1 X132.75 Y102.421 E14.27647
G1 X132.75 Y132.5 E15.77712
G1 X132.711 Y132.634 E15.78409
G1 X132.579 Y132.75 E15.79285
G1 X102.5 Y132.75 E17.2935
G1 X102.366 Y132.711 E17.30046
G1 X102.25 Y132.579 E17.30923
G1 X102.25 Y102.5 E18.80988
G1 X102.289 Y102.366 E18.81684
G0 F7500 X102.025 Y102.065
G1 F1500 X102.309 Y101.882 E18.83369
G1 X102.5 Y101.85 E18.84336
G1 X132.5 Y101.85 E20.34006
G1 X132.746 Y101.905 E20.35264
G1 X132.935 Y102.025 E20.36381
G1 X133.118 Y102.309 E20.38066
G1 X133.15 Y102.5 E20.39033
G1 X133.15 Y132.5 E21.88703
G1 X133.095 Y132.746 E21.89961
G1 X132.975 Y132.935 E21.91078
G1 X132.691 Y133.118 E21.92763
G1 X132.5 Y133.15 E21.93729
G1 X102.5 Y133.15 E23.434
G1 X102.254 Y133.095 E23.44658
G1 X102.065 Y132.975 E23.45775
G1 X101.882 Y132.691 E23.4746
G1 X101.85 Y132.5 E23.48426
G1 X101.85 Y102.5 E24.98097
G1 X101.905 Y102.254 E24.99355
G1 X102.025 Y102.065 E25.00471
G1 F3000 E21.00471
;MESH:EM_Cube-Unlabeled.stl
G0 F7500 X131.5 Y131.5
;TYPE:WALL-INNER
G1 F3000 E25.00471
G1 F1500 X131.5 Y103.5 E26.40164
G1 X103.5 Y103.5 E27.79857
G1 X103.5 Y131.5 E29.19549
G1 X131.5 Y131.5 E30.59242
G0 F7500 X131.9 Y131.9
G1 F1500 X131.9 Y103.1 E32.02925
G1 X103.1 Y103.1 E33.46609
G1 X103.1 Y131.9 E34.90293
G1 X131.9 Y131.9 E36.33977
G0 F7500 X132.3 Y132.3
;TYPE:WALL-OUTER
G1 F1500 X132.3 Y102.7 E37.81652
G1 X102.7 Y102.7 E39.29327
G1 X102.7 Y132.3 E40.77002
G1 X132.3 Y132.3 E42.24677
G0 F7500 X132.3 Y131.9
G0 X131.14 Y131.14
;TYPE:SKIN
G1 F1500 X103.86 Y131.14 E43.60777
G1 X103.86 Y103.86 E44.96878
G1 X131.14 Y103.86 E46.32978
G1 X131.14 Y131.14 E47.69079
G1 F3000 E43.69079
G0 F7500 X130.939 Y104.352
G1 F3000 E47.69079
G1 F1500 X130.647 Y104.059 E47.71142
G0 F7500 X130.081 Y104.059
G1 F1500 X130.939 Y104.918 E47.772
G0 F7500 X130.939 Y105.484
G1 F1500 X129.515 Y104.059 E47.8725
G0 F7500 X128.95 Y104.059
G1 F1500 X130.939 Y106.049 E48.01287
G0 F7500 X130.939 Y106.615
G1 F1500 X128.384 Y104.059 E48.19318
G0 F7500 X127.818 Y104.059
G1 F1500 X130.939 Y107.181 E48.41342
G0 F7500 X130.939 Y107.746
G1 F1500 X127.253 Y104.059 E48.67352
G0 F7500 X126.687 Y104.059
G1 F1500 X130.939 Y108.312 E48.97356
G0 F7500 X130.939 Y108.878
G1 F1500 X126.121 Y104.059 E49.31353
G0 F7500 X125.556 Y104.059
G1 F1500 X130.939 Y109.443 E49.69336
G0 F7500 X130.939 Y110.009
G1 F1500 X124.99 Y104.059 E50.11313
G0 F7500 X124.424 Y104.059
G1 F1500 X130.939 Y110.575 E50.57283
G0 F7500 X130.939 Y111.14
G1 F1500 X123.858 Y104.059 E51.07244
G0 F7500 X123.293 Y104.059
G1 F1500 X130.939 Y111.706 E51.61194
G0 F7500 X130.939 Y112.272
G1 F1500 X122.727 Y104.059 E52.19138
G0 F7500 X122.161 Y104.059
G1 F1500 X130.939 Y112.837 E52.81071
G0 F7500 X130.939 Y113.403
G1 F1500 X121.596 Y104.059 E53.46995
G0 F7500 X121.03 Y104.059
G1 F1500 X130.939 Y113.969 E54.16911
G0 F7500 X130.939 Y114.535
G1 F1500 X120.464 Y104.059 E54.90822
G0 F7500 X119.899 Y104.059
G1 F1500 X130.939 Y115.1 E55.68718
G0 F7500 X130.939 Y115.666
G1 F1500 X119.333 Y104.059 E56.50609
G0 F7500 X118.767 Y104.059
G1 F1500 X130.939 Y116.232 E57.36492
G0 F7500 X130.939 Y116.797
G1 F1500 X118.202 Y104.059 E58.26362
G0 F7500 X117.636 Y104.059
G1 F1500 X130.939 Y117.363 E59.20225
G0 F7500 X130.939 Y117.929
G1 F1500 X117.07 Y104.059 E60.18082
G0 F7500 X116.505 Y104.059
G1 F1500 X130.939 Y118.494 E61.19925
G0 F7500 X130.939 Y119.06
G1 F1500 X115.939 Y104.059 E62.25762
G0 F7500 X115.373 Y104.059
G1 F1500 X130.939 Y119.626 E63.35592
G0 F7500 X130.939 Y120.191
G1 F1500 X114.807 Y104.059 E64.49412
G0 F7500 X114.242 Y104.059
G1 F1500 X130.939 Y120.757 E65.67222
G0 F7500 X130.939 Y121.323
G1 F1500 X113.676 Y104.059 E66.89025
G0 F7500 X113.11 Y104.059
G1 F1500 X130.939 Y121.888 E68.14818
G0 F7500 X130.939 Y122.454
G1 F1500 X112.545 Y104.059 E69.44602
G0 F7500 X111.979 Y104.059
G1 F1500 X130.939 Y123.02 E70.78378
G0 F7500 X130.939 Y123.586
G1 F1500 X111.413 Y104.059 E72.16148
G0 F7500 X110.848 Y104.059
G1 F1500 X130.939 Y124.151 E73.57905
G0 F7500 X130.939 Y124.717
G1 F1500 X110.282 Y104.059 E75.03654
G0 F7500 X109.716 Y104.059
G1 F1500 X130.939 Y125.283 E76.53398
G0 F7500 X130.939 Y125.848
G1 F1500 X109.151 Y104.059 E78.07127
G0 F7500 X108.585 Y104.059
G1 F1500 X130.939 Y126.414 E79.6485
G0 F7500 X130.939 Y126.98
G1 F1500 X108.019 Y104.059 E81.26567
G0 F7500 X107.454 Y104.059
G1 F1500 X130.939 Y127.545 E82.9227
G0 F7500 X130.939 Y128.111
G1 F1500 X106.888 Y104.059 E84.61966
G0 F7500 X106.322 Y104.059
G1 F1500 X130.939 Y128.677 E86.35656
G0 F7500 X130.939 Y129.242
G1 F1500 X105.757 Y104.059 E88.13332
G0 F7500 X105.191 Y104.059
G1 F1500 X130.939 Y129.808 E89.95002
G0 F7500 X130.939 Y130.374
G1 F1500 X104.625 Y104.059 E91.80665
G0 F7500 X104.059 Y104.059
G1 F1500 X130.939 Y130.939 E93.70317
G0 F7500 X130.374 Y130.939
G1 F1500 X104.059 Y104.625 E95.5598
G0 F7500 X104.059 Y105.191
G1 F1500 X129.808 Y130.939 E97.3765
G0 F7500 X129.242 Y130.939
G1 F1500 X104.059 Y105.757 E99.15326
G0 F7500 X104.059 Y106.322
G1 F1500 X128.677 Y130.939 E100.89016
G0 F7500 X128.111 Y130.939
G1 F1500 X104.059 Y106.888 E102.58712
G0 F7500 X104.059 Y107.454
G1 F1500 X127.545 Y130.939 E104.24415
G0 F7500 X126.98 Y130.939
G1 F1500 X104.059 Y108.019 E105.86132
G0 F7500 X104.059 Y108.585
G1 F1500 X126.414 Y130.939 E107.43855
G0 F7500 X125.848 Y130.939
G1 F1500 X104.059 Y109.151 E108.97584
G0 F7500 X104.059 Y109.716
G1 F1500 X125.283 Y130.939 E110.47328
G0 F7500 X124.717 Y130.939
G1 F1500 X104.059 Y110.282 E111.93077
G0 F7500 X104.059 Y110.848
G1 F1500 X124.151 Y130.939 E113.34834
G0 F7500 X123.586 Y130.939
G1 F1500 X104.059 Y111.413 E114.72604
G0 F7500 X104.059 Y111.979
G1 F1500 X123.02 Y130.939 E116.0638
G0 F7500 X122.454 Y130.939
G1 F1500 X104.059 Y112.545 E117.36164
G0 F7500 X104.059 Y113.11
G1 F1500 X121.888 Y130.939 E118.61957
G0 F7500 X121.323 Y130.939
G1 F1500 X104.059 Y113.676 E119.8376
G0 F7500 X104.059 Y114.242
G1 F1500 X120.757 Y130.939 E121.0157
G0 F7500 X120.191 Y130.939
G1 F1500 X104.059 Y114.807 E122.1539
G0 F7500 X104.059 Y115.373
G1 F1500 X119.626 Y130.939 E123.2522
G0 F7500 X119.06 Y130.939
G1 F1500 X104.059 Y115.939 E124.31057
G0 F7500 X104.059 Y116.505
G1 F1500 X118.494 Y130.939 E125.329
G0 F7500 X117.929 Y130.939
G1 F1500 X104.059 Y117.07 E126.30757
G0 F7500 X104.059 Y117.636
G1 F1500 X117.363 Y130.939 E127.2462
G0 F7500 X116.797 Y130.939
G1 F1500 X104.059 Y118.202 E128.1449
G0 F7500 X104.059 Y118.767
G1 F1500 X116.232 Y130.939 E129.00374
G0 F7500 X115.666 Y130.939
G1 F1500 X104.059 Y119.333 E129.82264
G0 F7500 X104.059 Y119.899
G1 F1500 X115.1 Y130.939 E130.6016
G0 F7500 X114.535 Y130.939
G1 F1500 X104.059 Y120.464 E131.34071
G0 F7500 X104.059 Y121.03
G1 F1500 X113.969 Y130.939 E132.03988
G0 F7500 X113.403 Y130.939
G1 F1500 X104.059 Y121.596 E132.69911
G0 F7500 X104.059 Y122.161
G1 F1500 X112.837 Y130.939 E133.31845
G0 F7500 X112.272 Y130.939
G1 F1500 X104.059 Y122.727 E133.89788
G0 F7500 X104.059 Y123.293
G1 F1500 X111.706 Y130.939 E134.43738
G0 F7500 X111.14 Y130.939
G1 F1500 X104.059 Y123.858 E134.93699
G0 F7500 X104.059 Y124.424
G1 F1500 X110.575 Y130.939 E135.39669
G0 F7500 X110.009 Y130.939
G1 F1500 X104.059 Y124.99 E135.81646
G0 F7500 X104.059 Y125.556
G1 F1500 X109.443 Y130.939 E136.19629
G0 F7500 X108.878 Y130.939
G1 F1500 X104.059 Y126.121 E136.53627
G0 F7500 X104.059 Y126.687
G1 F1500 X108.312 Y130.939 E136.8363
G0 F7500 X107.746 Y130.939
G1 F1500 X104.059 Y127.253 E137.0964
G0 F7500 X104.059 Y127.818
G1 F1500 X107.181 Y130.939 E137.31664
G0 F7500 X106.615 Y130.939
G1 F1500 X104.059 Y128.384 E137.49695
G0 F7500 X104.059 Y128.95
G1 F1500 X106.049 Y130.939 E137.63732
G0 F7500 X105.484 Y130.939
G1 F1500 X104.059 Y129.515 E137.73782
G0 F7500 X104.059 Y130.081
G1 F1500 X104.918 Y130.939 E137.7984
G0 F7500 X104.352 Y130.939
G1 F1500 X104.059 Y130.647 E137.81903
G1 F3000 E133.81903
;MESH:NONMESH
G0 F300 X104.059 Y130.647 Z0.6
G0 F7500 X131.5 Y131.5
;TIME_ELAPSED:125.616053
;LAYER:1
M106 S127.5
;TYPE:WALL-INNER
;MESH:EM_Cube-Unlabeled.stl
G1 F3000 E137.81903
G1 F2250 X131.5 Y103.5 E139.21596
G1 X103.5 Y103.5 E140.61288
G1 X103.5 Y131.5 E142.00981
G1 X131.5 Y131.5 E143.40674
G0 F11250 X131.9 Y131.9
G1 F2250 X131.9 Y103.1 E144.84357
G1 X103.1 Y103.1 E146.28041
G1 X103.1 Y131.9 E147.71725
G1 X131.9 Y131.9 E149.15409
G0 F11250 X132.3 Y132.3
;TYPE:WALL-OUTER
G1 F2250 X132.3 Y102.7 E150.63084
G1 X102.7 Y102.7 E152.10759
G1 X102.7 Y132.3 E153.58434
G1 X132.3 Y132.3 E155.06109
G0 F11250 X132.3 Y131.9
G0 X131.14 Y131.14
;TYPE:SKIN
G1 F2250 X103.86 Y131.14 E156.42209
G1 X103.86 Y103.86 E157.7831
G1 X131.14 Y103.86 E159.1441
G1 X131.14 Y131.14 E160.50511
G1 F3000 E156.50511
G0 F11250 X104.677 Y104.059
G1 F3000 E160.50511
G1 F2250 X104.059 Y104.677 E160.54871
G0 F11250 X104.059 Y105.243
G1 F2250 X105.243 Y104.059 E160.63225
G0 F11250 X105.809 Y104.059
G1 F2250 X104.059 Y105.809 E160.75572
G0 F11250 X104.059 Y106.375
G1 F2250 X106.375 Y104.059 E160.91913
G0 F11250 X106.94 Y104.059
G1 F2250 X104.059 Y106.94 E161.1224
G0 F11250 X104.059 Y107.506
G1 F2250 X107.506 Y104.059 E161.3656
G0 F11250 X108.072 Y104.059
G1 F2250 X104.059 Y108.072 E161.64874
G0 F11250 X104.059 Y108.637
G1 F2250 X108.637 Y104.059 E161.97174
G0 F11250 X109.203 Y104.059
G1 F2250 X104.059 Y109.203 E162.33468
G0 F11250 X104.059 Y109.769
G1 F2250 X109.769 Y104.059 E162.73755
G0 F11250 X110.334 Y104.059
G1 F2250 X104.059 Y110.334 E163.18028
G0 F11250 X104.059 Y110.9
G1 F2250 X110.9 Y104.059 E163.66295
G0 F11250 X111.466 Y104.059
G1 F2250 X104.059 Y111.466 E164.18556
G0 F11250 X104.059 Y112.031
G1 F2250 X112.031 Y104.059 E164.74803
G0 F11250 X112.597 Y104.059
G1 F2250 X104.059 Y112.597 E165.35043
G0 F11250 X104.059 Y113.163
G1 F2250 X113.163 Y104.059 E165.99276
G0 F11250 X113.728 Y104.059
G1 F2250 X104.059 Y113.728 E166.67496
G0 F11250 X104.059 Y114.294
G1 F2250 X114.294 Y104.059 E167.3971
G0 F11250 X114.86 Y104.059
G1 F2250 X104.059 Y114.86 E168.15917
G0 F11250 X104.059 Y115.425
G1 F2250 X115.425 Y104.059 E168.9611
G0 F11250 X115.991 Y104.059
G1 F2250 X104.059 Y115.991 E169.80297
G0 F11250 X104.059 Y116.557
G1 F2250 X116.557 Y104.059 E170.68477
G0 F11250 X117.123 Y104.059
G1 F2250 X104.059 Y117.123 E171.6065
G0 F11250 X104.059 Y117.688
G1 F2250 X117.688 Y104.059 E172.5681
G0 F11250 X118.254 Y104.059
G1 F2250 X104.059 Y118.254 E173.56964
G0 F11250 X104.059 Y118.82
G1 F2250 X118.82 Y104.059 E174.61111
G0 F11250 X119.385 Y104.059
G1 F2250 X104.059 Y119.385 E175.69244
G0 F11250 X104.059 Y119.951
G1 F2250 X119.951 Y104.059 E176.8137
G0 F11250 X120.517 Y104.059
G1 F2250 X104.059 Y120.517 E177.97491
G0 F11250 X104.059 Y121.082
G1 F2250 X121.082 Y104.059 E179.17597
G0 F11250 X121.648 Y104.059
G1 F2250 X104.059 Y121.648 E180.41697
G0 F11250 X104.059 Y122.214
G1 F2250 X122.214 Y104.059 E181.6979
G0 F11250 X122.779 Y104.059
G1 F2250 X104.059 Y122.779 E183.0187
G0 F11250 X104.059 Y123.345
G1 F2250 X123.345 Y104.059 E184.37943
G0 F11250 X123.911 Y104.059
G1 F2250 X104.059 Y123.911 E185.7801
G0 F11250 X104.059 Y124.476
G1 F2250 X124.476 Y104.059 E187.22063
G0 F11250 X125.042 Y104.059
G1 F2250 X104.059 Y125.042 E188.70109
G0 F11250 X104.059 Y125.608
G1 F2250 X125.608 Y104.059 E190.22149
G0 F11250 X126.174 Y104.059
G1 F2250 X104.059 Y126.174 E191.78182
G0 F11250 X104.059 Y126.739
G1 F2250 X126.739 Y104.059 E193.38202
G0 F11250 X127.305 Y104.059
G1 F2250 X104.059 Y127.305 E195.02215
G0 F11250 X104.059 Y127.871
G1 F2250 X127.871 Y104.059 E196.70221
G0 F11250 X128.436 Y104.059
G1 F2250 X104.059 Y128.436 E198.42214
G0 F11250 X104.059 Y129.002
G1 F2250 X129.002 Y104.059 E200.18201
G0 F11250 X129.568 Y104.059
G1 F2250 X104.059 Y129.568 E201.9818
G0 F11250 X104.059 Y130.133
G1 F2250 X130.133 Y104.059 E203.82147
G0 F11250 X130.699 Y104.059
G1 F2250 X104.059 Y130.699 E205.70106
G0 F11250 X104.385 Y130.939
G1 F2250 X130.939 Y104.385 E207.57459
G0 F11250 X130.939 Y104.95
G1 F2250 X104.95 Y130.939 E209.40825
G0 F11250 X105.516 Y130.939
G1 F2250 X130.939 Y105.516 E211.20198
G0 F11250 X130.939 Y106.082
G1 F2250 X106.082 Y130.939 E212.95578
G0 F11250 X106.647 Y130.939
G1 F2250 X130.939 Y106.647 E214.66971
G0 F11250 X130.939 Y107.213
G1 F2250 X107.213 Y130.939 E216.34371
G0 F11250 X107.779 Y130.939
G1 F2250 X130.939 Y107.779 E217.97777
G0 F11250 X130.939 Y108.345
G1 F2250 X108.345 Y130.939 E219.5719
G0 F11250 X108.91 Y130.939
G1 F2250 X130.939 Y108.91 E221.12617
G0 F11250 X130.939 Y109.476
G1 F2250 X109.476 Y130.939 E222.6405
G0 F11250 X110.042 Y130.939
G1 F2250 X130.939 Y110.042 E224.11489
G0 F11250 X130.939 Y110.607
G1 F2250 X110.607 Y130.939 E225.54942
G0 F11250 X111.173 Y130.939
G1 F2250 X130.939 Y111.173 E226.94402
G0 F11250 X130.939 Y111.739
G1 F2250 X111.739 Y130.939 E228.29869
G0 F11250 X112.304 Y130.939
G1 F2250 X130.939 Y112.304 E229.61349
G0 F11250 X130.939 Y112.87
G1 F2250 X112.87 Y130.939 E230.88835
G0 F11250 X113.436 Y130.939
