;FLAVOR:Marlin
;TIME:593
;Filament used: 1.14031m
;Layer height: 0.3
;MINX:101.05
;MINY:101.05
;MINZ:0.3
;MAXX:133.95
;MAXY:133.95
;MAXZ:3
;TARGET_MACHINE.NAME:Creality Ender-3
;Generated with Cura_SteamEngine 5.6.0
M140 S60
M105
M190 S60
M104 S220
M105
M109 S220
M82 ;absolute extrusion mode
; Ender 3 Custom Start G-code
G92 E0 ; Reset Extruder
G28 ; Home all axes
BED_MESH_PROFILE LOAD="default" ; Get default bed profile
G1 Z2.0 F3000 ; Move Z Axis up little to prevent scratching of Heat Bed
G1 X5.1 Y20 Z0.3 F5000.0 ; Move to start position
G1 X5.1 Y200.0 Z0.3 F1500.0 E15 ; Draw the first line
G1 X5.4 Y200.0 Z0.3 F5000.0 ; Move to side a little
G1 X5.4 Y20 Z0.3 F1500.0 E30 ; Draw the second line
G92 E0 ; Reset Extruder
G1 Z2.0 F3000 ; Move Z Axis up little to prevent scratching of Heat Bed
G1 X5 Y20 Z0.3 F5000.0 ; Move over to prevent blob squish
G92 E0
G92 E0
G1 F3000 E-4
;LAYER_COUNT:10
;LAYER:0
M107
G0 F7500 X101.497 Y101.463 Z0.3
;TYPE:SKIRT
G1 F3000 E0
G1 F1500 X101.729 Y101.282 E0.01468
G1 X102.186 Y101.091 E0.03939
G1 X102.5 Y101.05 E0.05519
G1 X132.5 Y101.05 E1.5519
G1 X132.773 Y101.084 E1.56562
G1 X133.022 Y101.156 E1.57855
G1 X133.363 Y101.349 E1.5981
G1 X133.537 Y101.497 E1.6095
G1 X133.718 Y101.729 E1.62418
G1 X133.909 Y102.186 E1.64889
G1 X133.95 Y102.5 E1.66469
G1 X133.95 Y132.5 E3.16139
G1 X133.916 Y132.773 E3.17512
G1 X133.844 Y133.022 E3.18805
G1 X133.651 Y133.363 E3.2076
G1 X133.503 Y133.537 E3.219
G1 X133.271 Y133.718 E3.23368
G1 X132.814 Y133.909 E3.25839
G1 X132.5 Y133.95 E3.27419
G1 X102.5 Y133.95 E4.77089
G1 X102.227 Y133.916 E4.78462
G1 X101.978 Y133.844 E4.79755
G1 X101.637 Y133.651 E4.8171
G1 X101.463 Y133.503 E4.82849
G1 X101.282 Y133.271 E4.84317
G1 X101.091 Y132.814 E4.86788
G1 X101.05 Y132.5 E4.88368
G1 X101.05 Y102.5 E6.38039
G1 X101.084 Y102.227 E6.39411
G1 X101.156 Y101.978 E6.40705
G1 X101.349 Y101.637 E6.42659
G1 X101.497 Y101.463 E6.43799
G0 F7500 X101.717 Y101.799
G1 F1500 X101.951 Y101.615 E6.45284
G1 X102.243 Y101.487 E6.46875
G1 X102.5 Y101.45 E6.4817
G1 X132.5 Y101.45 E7.97841
G1 X132.858 Y101.521 E7.99662
G1 X133.201 Y101.717 E8.01633
G1 X133.385 Y101.951 E8.03118
G1 X133.513 Y102.243 E8.04708
G1 X133.55 Y102.5 E8.06004
G1 X133.55 Y132.5 E9.55674
G1 X133.479 Y132.858 E9.57495
G1 X133.283 Y133.201 E9.59466
G1 X133.049 Y133.385 E9.60951
G1 X132.757 Y133.513 E9.62542
G1 X132.5 Y133.55 E9.63837
G1 X102.5 Y133.55 E11.13508
G1 X102.142 Y133.479 E11.15329
G1 X101.799 Y133.283 E11.173
G1 X101.615 Y133.049 E11.18785
G1 X101.487 Y132.757 E11.20375
G1 X101.45 Y132.5 E11.21671
G1 X101.45 Y102.5 E12.71341
G1 X101.521 Y102.142 E12.73162
G1 X101.717 Y101.799 E12.75133
G0 F7500 X102.289 Y102.366
G1 F1500 X102.421 Y102.25 E12.7601
G1 X132.5 Y102.25 E14.26075
G1 X132.634 Y102.289 E14.26771
G1 X132.75 Y102.421 E14.27647
G1 X132.75 Y132.5 E15.77712
G1 X132.711 Y132.634 E15.78409
G1 X132.579 Y132.75 E15.79285
G1 X102.5 Y132.75 E17.2935
G1 X102.366 Y132.711 E17.30046
G1 X102.25 Y132.579 E17.30923
G1 X102.25 Y102.5 E18.80988
G1 X102.289 Y102.366 E18.81684
G0 F7500 X102.025 Y102.065
G1 F1500 X102.309 Y101.882 E18.83369
G1 X102.5 Y101.85 E18.84336
G1 X132.5 Y101.85 E20.34006
G1 X132.746 Y101.905 E20.35264
G1 X132.935 Y102.025 E20.36381
G1 X133.118 Y102.309 E20.38066
G1 X133.15 Y102.5 E20.39033
G1 X133.15 Y132.5 E21.88703
G1 X133.095 Y132.746 E21.89961
G1 X132.975 Y132.935 E21.91078
G1 X132.691 Y133.118 E21.92763
G1 X132.5 Y133.15 E21.93729
G1 X102.5 Y133.15 E23.434
G1 X102.254 Y133.095 E23.44658
G1 X102.065 Y132.975 E23.45775
G1 X101.882 Y132.691 E23.4746
G1 X101.85 Y132.5 E23.48426
G1 X101.85 Y102.5 E24.98097
G1 X101.905 Y102.254 E24.99355
G1 X102.025 Y102.065 E25.00471
G1 F3000 E21.00471
;MESH:EM_Cube-Unlabeled.stl
G0 F7500 X131.5 Y131.5
;TYPE:WALL-INNER
G1 F3000 E25.00471
G1 F1500 X131.5 Y103.5 E26.68103
G1 X103.5 Y103.5 E28.35734
G1 X103.5 Y131.5 E30.03365
G1 X131.5 Y131.5 E31.70996
G0 F7500 X131.9 Y131.9
G1 F1500 X131.9 Y103.1 E33.43416
G1 X103.1 Y103.1 E35.15837
G1 X103.1 Y131.9 E36.88257
G1 X131.9 Y131.9 E38.60678
G0 F7500 X132.3 Y132.3
;TYPE:WALL-OUTER
G1 F1500 X132.3 Y102.7 E40.37888
G1 X102.7 Y102.7 E42.15098
G1 X102.7 Y132.3 E43.92308
G1 X132.3 Y132.3 E45.69518
G0 F7500 X132.3 Y131.9
G0 X131.14 Y131.14
;TYPE:SKIN
G1 F1500 X103.86 Y131.14 E47.32838
G1 X103.86 Y103.86 E48.96159
G1 X131.14 Y103.86 E50.5948
G1 X131.14 Y131.14 E52.228
G1 F3000 E48.228
G0 F7500 X130.939 Y104.352
G1 F3000 E52.228
G1 F1500 X130.647 Y104.059 E52.25277
G0 F7500 X130.081 Y104.059
G1 F1500 X130.939 Y104.918 E52.32545
G0 F7500 X130.939 Y105.484
G1 F1500 X129.515 Y104.059 E52.44606
G0 F7500 X128.95 Y104.059
G1 F1500 X130.939 Y106.049 E52.6145
G0 F7500 X130.939 Y106.615
G1 F1500 X128.384 Y104.059 E52.83087
G0 F7500 X127.818 Y104.059
G1 F1500 X130.939 Y107.181 E53.09516
G0 F7500 X130.939 Y107.746
G1 F1500 X127.253 Y104.059 E53.40728
G0 F7500 X126.687 Y104.059
G1 F1500 X130.939 Y108.312 E53.76732
G0 F7500 X130.939 Y108.878
G1 F1500 X126.121 Y104.059 E54.17529
G0 F7500 X125.556 Y104.059
G1 F1500 X130.939 Y109.443 E54.63109
G0 F7500 X130.939 Y110.009
G1 F1500 X124.99 Y104.059 E55.13481
G0 F7500 X124.424 Y104.059
G1 F1500 X130.939 Y110.575 E55.68646
G0 F7500 X130.939 Y111.14
G1 F1500 X123.858 Y104.059 E56.28598
G0 F7500 X123.293 Y104.059
G1 F1500 X130.939 Y111.706 E56.93338
G0 F7500 X130.939 Y112.272
G1 F1500 X122.727 Y104.059 E57.62871
G0 F7500 X122.161 Y104.059
G1 F1500 X130.939 Y112.837 E58.37191
G0 F7500 X130.939 Y113.403
G1 F1500 X121.596 Y104.059 E59.16299
G0 F7500 X121.03 Y104.059
G1 F1500 X130.939 Y113.969 E60.00199
G0 F7500 X130.939 Y114.535
G1 F1500 X120.464 Y104.059 E60.88892
G0 F7500 X119.899 Y104.059
G1 F1500 X130.939 Y115.1 E61.82368
G0 F7500 X130.939 Y115.666
G1 F1500 X119.333 Y104.059 E62.80636
G0 F7500 X118.767 Y104.059
G1 F1500 X130.939 Y116.232 E63.83696
G0 F7500 X130.939 Y116.797
G1 F1500 X118.202 Y104.059 E64.9154
G0 F7500 X117.636 Y104.059
G1 F1500 X130.939 Y117.363 E66.04176
G0 F7500 X130.939 Y117.929
G1 F1500 X117.07 Y104.059 E67.21604
G0 F7500 X116.505 Y104.059
G1 F1500 X130.939 Y118.494 E68.43816
G0 F7500 X130.939 Y119.06
G1 F1500 X115.939 Y104.059 E69.7082
G0 F7500 X115.373 Y104.059
G1 F1500 X130.939 Y119.626 E71.02616
G0 F7500 X130.939 Y120.191
G1 F1500 X114.807 Y104.059 E72.392
G0 F7500 X114.242 Y104.059
G1 F1500 X130.939 Y120.757 E73.80572
G0 F7500 X130.939 Y121.323
G1 F1500 X113.676 Y104.059 E75.26736
G0 F7500 X113.11 Y104.059
G1 F1500 X130.939 Y121.888 E76.77688
G0 F7500 X130.939 Y122.454
G1 F1500 X112.545 Y104.059 E78.33428
G0 F7500 X111.979 Y104.059
G1 F1500 X130.939 Y123.02 E79.9396
G0 F7500 X130.939 Y123.586
G1 F1500 X111.413 Y104.059 E81.59284
G0 F7500 X110.848 Y104.059
G1 F1500 X130.939 Y124.151 E83.29391
G0 F7500 X130.939 Y124.717
G1 F1500 X110.282 Y104.059 E85.04291
G0 F7500 X109.716 Y104.059
G1 F1500 X130.939 Y125.283 E86.83983
G0 F7500 X130.939 Y125.848
G1 F1500 X109.151 Y104.059 E88.68458
G0 F7500 X108.585 Y104.059
G1 F1500 X130.939 Y126.414 E90.57726
G0 F7500 X130.939 Y126.98
G1 F1500 X108.019 Y104.059 E92.51786
G0 F7500 X107.454 Y104.059
G1 F1500 X130.939 Y127.545 E94.50629
G0 F7500 X130.939 Y128.111
G1 F1500 X106.888 Y104.059 E96.54265
G0 F7500 X106.322 Y104.059
G1 F1500 X130.939 Y128.677 E98.62693
G0 F7500 X130.939 Y129.242
G1 F1500 X105.757 Y104.059 E100.75904
G0 F7500 X105.191 Y104.059
G1 F1500 X130.939 Y129.808 E102.93908
G0 F7500 X130.939 Y130.374
G1 F1500 X104.625 Y104.059 E105.16703
G0 F7500 X104.059 Y104.059
G1 F1500 X130.939 Y130.939 E107.44287
G0 F7500 X130.374 Y130.939
G1 F1500 X104.059 Y104.625 E109.67082
G0 F7500 X104.059 Y105.191
G1 F1500 X129.808 Y130.939 E111.85086
G0 F7500 X129.242 Y130.939
G1 F1500 X104.059 Y105.757 E113.98297
G0 F7500 X104.059 Y106.322
G1 F1500 X128.677 Y130.939 E116.06725
G0 F7500 X128.111 Y130.939
G1 F1500 X104.059 Y106.888 E118.1036
G0 F7500 X104.059 Y107.454
G1 F1500 X127.545 Y130.939 E120.09204
G0 F7500 X126.98 Y130.939
G1 F1500 X104.059 Y108.019 E122.03264
G0 F7500 X104.059 Y108.585
G1 F1500 X126.414 Y130.939 E123.92531
G0 F7500 X125.848 Y130.939
G1 F1500 X104.059 Y109.151 E125.77007
G0 F7500 X104.059 Y109.716
G1 F1500 X125.283 Y130.939 E127.56699
G0 F7500 X124.717 Y130.939
G1 F1500 X104.059 Y110.282 E129.31599
G0 F7500 X104.059 Y110.848
G1 F1500 X124.151 Y130.939 E131.01706
G0 F7500 X123.586 Y130.939
G1 F1500 X104.059 Y111.413 E132.6703
G0 F7500 X104.059 Y111.979
G1 F1500 X123.02 Y130.939 E134.27562
G0 F7500 X122.454 Y130.939
G1 F1500 X104.059 Y112.545 E135.83302
G0 F7500 X104.059 Y113.11
G1 F1500 X121.888 Y130.939 E137.34254
G0 F7500 X121.323 Y130.939
G1 F1500 X104.059 Y113.676 E138.80418
G0 F7500 X104.059 Y114.242
G1 F1500 X120.757 Y130.939 E140.2179
G0 F7500 X120.191 Y130.939
G1 F1500 X104.059 Y114.807 E141.58374
G0 F7500 X104.059 Y115.373
G1 F1500 X119.626 Y130.939 E142.9017
G0 F7500 X119.06 Y130.939
G1 F1500 X104.059 Y115.939 E144.17174
G0 F7500 X104.059 Y116.505
G1 F1500 X118.494 Y130.939 E145.39386
G0 F7500 X117.929 Y130.939
G1 F1500 X104.059 Y117.07 E146.56814
G0 F7500 X104.059 Y117.636
G1 F1500 X117.363 Y130.939 E147.6945
G0 F7500 X116.797 Y130.939
G1 F1500 X104.059 Y118.202 E148.77294
G0 F7500 X104.059 Y118.767
G1 F1500 X116.232 Y130.939 E149.80354
G0 F7500 X115.666 Y130.939
G1 F1500 X104.059 Y119.333 E150.78622
G0 F7500 X104.059 Y119.899
G1 F1500 X115.1 Y130.939 E151.72098
G0 F7500 X114.535 Y130.939
G1 F1500 X104.059 Y120.464 E152.6079
G0 F7500 X104.059 Y121.03
G1 F1500 X113.969 Y130.939 E153.44691
G0 F7500 X113.403 Y130.939
G1 F1500 X104.059 Y121.596 E154.23799
G0 F7500 X104.059 Y122.161
G1 F1500 X112.837 Y130.939 E154.98119
G0 F7500 X112.272 Y130.939
G1 F1500 X104.059 Y122.727 E155.67651
G0 F7500 X104.059 Y123.293
G1 F1500 X111.706 Y130.939 E156.32392
G0 F7500 X111.14 Y130.939
G1 F1500 X104.059 Y123.858 E156.92344
G0 F7500 X104.059 Y124.424
G1 F1500 X110.575 Y130.939 E157.47508
G0 F7500 X110.009 Y130.939
G1 F1500 X104.059 Y124.99 E157.97881
G0 F7500 X104.059 Y125.556
G1 F1500 X109.443 Y130.939 E158.43461
G0 F7500 X108.878 Y130.939
G1 F1500 X104.059 Y126.121 E158.84258
G0 F7500 X104.059 Y126.687
G1 F1500 X108.312 Y130.939 E159.20262
G0 F7500 X107.746 Y130.939
G1 F1500 X104.059 Y127.253 E159.51474
G0 F7500 X104.059 Y127.818
G1 F1500 X107.181 Y130.939 E159.77903
G0 F7500 X106.615 Y130.939
G1 F1500 X104.059 Y128.384 E159.99539
G0 F7500 X104.059 Y128.95
G1 F1500 X106.049 Y130.939 E160.16384
G0 F7500 X105.484 Y130.939
G1 F1500 X104.059 Y129.515 E160.28445
G0 F7500 X104.059 Y130.081
G1 F1500 X104.918 Y130.939 E160.35713
G0 F7500 X104.352 Y130.939
G1 F1500 X104.059 Y130.647 E160.3819
G1 F3000 E156.3819
;MESH:NONMESH
G0 F300 X104.059 Y130.647 Z0.6
G0 F7500 X131.5 Y131.5
;TIME_ELAPSED:125.616111
;LAYER:1
M106 S127.5
;TYPE:WALL-INNER
;MESH:EM_Cube-Unlabeled.stl
G1 F3000 E160.3819
G1 F2250 X131.5 Y103.5 E162.05821
G1 X103.5 Y103.5 E163.73452
G1 X103.5 Y131.5 E165.41083
G1 X131.5 Y131.5 E167.08714
G0 F11250 X131.9 Y131.9
G1 F2250 X131.9 Y103.1 E168.81135
G1 X103.1 Y103.1 E170.53555
G1 X103.1 Y131.9 E172.25976
G1 X131.9 Y131.9 E173.98396
G0 F11250 X132.3 Y132.3
;TYPE:WALL-OUTER
G1 F2250 X132.3 Y102.7 E175.75606
G1 X102.7 Y102.7 E177.52816
G1 X102.7 Y132.3 E179.30026
G1 X132.3 Y132.3 E181.07236
G0 F11250 X132.3 Y131.9
G0 X131.14 Y131.14
;TYPE:SKIN
G1 F2250 X103.86 Y131.14 E182.70557
G1 X103.86 Y103.86 E184.33877
G1 X131.14 Y103.86 E185.97198
G1 X131.14 Y131.14 E187.60518
G1 F3000 E183.60518
G0 F11250 X104.677 Y104.059
G1 F3000 E187.60518
G1 F2250 X104.059 Y104.677 E187.65751
G0 F11250 X104.059 Y105.243
G1 F2250 X105.243 Y104.059 E187.75775
G0 F11250 X105.809 Y104.059
G1 F2250 X104.059 Y105.809 E187.90592
G0 F11250 X104.059 Y106.375
G1 F2250 X106.375 Y104.059 E188.10201
G0 F11250 X106.94 Y104.059
G1 F2250 X104.059 Y106.94 E188.34593
G0 F11250 X104.059 Y107.506
G1 F2250 X107.506 Y104.059 E188.63778
G0 F11250 X108.072 Y104.059
G1 F2250 X104.059 Y108.072 E188.97754
G0 F11250 X104.059 Y108.637
G1 F2250 X108.637 Y104.059 E189.36515
G0 F11250 X109.203 Y104.059
G1 F2250 X104.059 Y109.203 E189.80067
G0 F11250 X104.059 Y109.769
G1 F2250 X109.769 Y104.059 E190.28412
G0 F11250 X110.334 Y104.059
G1 F2250 X104.059 Y110.334 E190.8154
G0 F11250 X104.059 Y110.9
G1 F2250 X110.9 Y104.059 E191.3946
G0 F11250 X111.466 Y104.059
G1 F2250 X104.059 Y111.466 E192.02173
G0 F11250 X104.059 Y112.031
G1 F2250 X112.031 Y104.059 E192.69669
G0 F11250 X112.597 Y104.059
G1 F2250 X104.059 Y112.597 E193.41957
G0 F11250 X104.059 Y113.163
G1 F2250 X113.163 Y104.059 E194.19037
G0 F11250 X113.728 Y104.059
G1 F2250 X104.059 Y113.728 E195.00901
G0 F11250 X104.059 Y114.294
G1 F2250 X114.294 Y104.059 E195.87558
G0 F11250 X114.86 Y104.059
G1 F2250 X104.059 Y114.86 E196.79006
G0 F11250 X104.059 Y115.425
G1 F2250 X115.425 Y104.059 E197.75238
G0 F11250 X115.991 Y104.059
G1 F2250 X104.059 Y115.991 E198.76262
G0 F11250 X104.059 Y116.557
G1 F2250 X116.557 Y104.059 E199.82078
G0 F11250 X117.123 Y104.059
G1 F2250 X104.059 Y117.123 E200.92686
G0 F11250 X104.059 Y117.688
G1 F2250 X117.688 Y104.059 E202.08078
G0 F11250 X118.254 Y104.059
G1 F2250 X104.059 Y118.254 E203.28262
G0 F11250 X104.059 Y118.82
G1 F2250 X118.82 Y104.059 E204.53238
G0 F11250 X119.385 Y104.059
G1 F2250 X104.059 Y119.385 E205.82998
G0 F11250 X104.059 Y119.951
G1 F2250 X119.951 Y104.059 E207.1755
G0 F11250 X120.517 Y104.059
G1 F2250 X104.059 Y120.517 E208.56894
G0 F11250 X104.059 Y121.082
G1 F2250 X121.082 Y104.059 E210.01022
G0 F11250 X121.648 Y104.059
G1 F2250 X104.059 Y121.648 E211.49942
G0 F11250 X104.059 Y122.214
G1 F2250 X122.214 Y104.059 E213.03654
G0 F11250 X122.779 Y104.059
G1 F2250 X104.059 Y122.779 E214.6215
G0 F11250 X104.059 Y123.345
G1 F2250 X123.345 Y104.059 E216.25437
G0 F11250 X123.911 Y104.059
G1 F2250 X104.059 Y123.911 E217.93517
G0 F11250 X104.059 Y124.476
G1 F2250 X124.476 Y104.059 E219.66381
G0 F11250 X125.042 Y104.059
G1 F2250 X104.059 Y125.042 E221.44037
G0 F11250 X104.059 Y125.608
G1 F2250 X125.608 Y104.059 E223.26484
G0 F11250 X126.174 Y104.059
G1 F2250 X104.059 Y126.174 E225.13724
G0 F11250 X104.059 Y126.739
G1 F2250 X126.739 Y104.059 E227.05748
G0 F11250 X127.305 Y104.059
G1 F2250 X104.059 Y127.305 E229.02564
G0 F11250 X104.059 Y127.871
G1 F2250 X127.871 Y104.059 E231.04171
G0 F11250 X128.436 Y104.059
G1 F2250 X104.059 Y128.436 E233.10563
G0 F11250 X104.059 Y129.002
G1 F2250 X129.002 Y104.059 E235.21746
G0 F11250 X129.568 Y104.059
G1 F2250 X104.059 Y129.568 E237.37722
G0 F11250 X104.059 Y130.133
G1 F2250 X130.133 Y104.059 E239.58482
G0 F11250 X130.699 Y104.059
G1 F2250 X104.059 Y130.699 E241.84033
G0 F11250 X104.385 Y130.939
G1 F2250 X130.939 Y104.385 E244.08856
G0 F11250 X130.939 Y104.95
G1 F2250 X104.95 Y130.939 E246.28896
G0 F11250 X105.516 Y130.939
G1 F2250 X130.939 Y105.516 E248.44144
G0 F11250 X130.939 Y106.082
G1 F2250 X106.082 Y130.939 E250.54599
G0 F11250 X106.647 Y130.939
G1 F2250 X130.939 Y106.647 E252.60271
G0 F11250 X130.939 Y107.213
G1 F2250 X107.213 Y130.939 E254.61151
G0 F11250 X107.779 Y130.939
G1 F2250 X130.939 Y107.779 E256.57238
G0 F11250 X130.939 Y108.345
G1 F2250 X108.345 Y130.939 E258.48534
G0 F11250 X108.91 Y130.939
G1 F2250 X130.939 Y108.91 E260.35046
G0 F11250 X130.939 Y109.476
G1 F2250 X109.476 Y130.939 E262.16765
G0 F11250 X110.042 Y130.939
G1 F2250 X130.939 Y110.042 E263.93693
G0 F11250 X130.939 Y110.607
G1 F2250 X110.607 Y130.939 E265.65837
G0 F11250 X111.173 Y130.939
G1 F2250 X130.939 Y111.173 E267.33188
G0 F11250 X130.939 Y111.739
G1 F2250 X111.739 Y130.939 E268.95748
G0 F11250 X112.304 Y130.939
G1 F2250 X130.939 Y112.304 E270.53524
G0 F11250 X130.939 Y112.87
G1 F2250 X112.87 Y130.939 E272.06508
G0 F11250 X113.436 Y130.939
