;FLAVOR:Marlin
;TIME:593
;Filament used: 1.23325m
;Layer height: 0.3
;MINX:101.05
;MINY:101.05
;MINZ:0.3
;MAXX:133.95
;MAXY:133.95
;MAXZ:3
;TARGET_MACHINE.NAME:Creality Ender-3
;Generated with Cura_SteamEngine 5.6.0
M140 S60
M105
M190 S60
M104 S220
M105
M109 S220
M82 ;absolute extrusion mode
; Ender 3 Custom Start G-code
G92 E0 ; Reset Extruder
G28 ; Home all axes
BED_MESH_PROFILE LOAD="default" ; Get default bed profile
G1 Z2.0 F3000 ; Move Z Axis up little to prevent scratching of Heat Bed
G1 X5.1 Y20 Z0.3 F5000.0 ; Move to start position
G1 X5.1 Y200.0 Z0.3 F1500.0 E15 ; Draw the first line
G1 X5.4 Y200.0 Z0.3 F5000.0 ; Move to side a little
G1 X5.4 Y20 Z0.3 F1500.0 E30 ; Draw the second line
G92 E0 ; Reset Extruder
G1 Z2.0 F3000 ; Move Z Axis up little to prevent scratching of Heat Bed
G1 X5 Y20 Z0.3 F5000.0 ; Move over to prevent blob squish
G92 E0
G92 E0
G1 F3000 E-4
;LAYER_COUNT:10
;LAYER:0
M107
G0 F7500 X101.497 Y101.463 Z0.3
;TYPE:SKIRT
G1 F3000 E0
G1 F1500 X101.729 Y101.282 E0.01468
G1 X102.186 Y101.091 E0.03939
G1 X102.5 Y101.05 E0.05519
G1 X132.5 Y101.05 E1.5519
G1 X132.773 Y101.084 E1.56562
G1 X133.022 Y101.156 E1.57855
G1 X133.363 Y101.349 E1.5981
G1 X133.537 Y101.497 E1.6095
G1 X133.718 Y101.729 E1.62418
G1 X133.909 Y102.186 E1.64889
G1 X133.95 Y102.5 E1.66469
G1 X133.95 Y132.5 E3.16139
G1 X133.916 Y132.773 E3.17512
G1 X133.844 Y133.022 E3.18805
G1 X133.651 Y133.363 E3.2076
G1 X133.503 Y133.537 E3.219
G1 X133.271 Y133.718 E3.23368
G1 X132.814 Y133.909 E3.25839
G1 X132.5 Y133.95 E3.27419
G1 X102.5 Y133.95 E4.77089
G1 X102.227 Y133.916 E4.78462
G1 X101.978 Y133.844 E4.79755
G1 X101.637 Y133.651 E4.8171
G1 X101.463 Y133.503 E4.82849
G1 X101.282 Y133.271 E4.84317
G1 X101.091 Y132.814 E4.86788
G1 X101.05 Y132.5 E4.88368
G1 X101.05 Y102.5 E6.38039
G1 X101.084 Y102.227 E6.39411
G1 X101.156 Y101.978 E6.40705
G1 X101.349 Y101.637 E6.42659
G1 X101.497 Y101.463 E6.43799
G0 F7500 X101.717 Y101.799
G1 F1500 X101.951 Y101.615 E6.45284
G1 X102.243 Y101.487 E6.46875
G1 X102.5 Y101.45 E6.4817
G1 X132.5 Y101.45 E7.97841
G1 X132.858 Y101.521 E7.99662
G1 X133.201 Y101.717 E8.01633
G1 X133.385 Y101.951 E8.03118
G1 X133.513 Y102.243 E8.04708
G1 X133.55 Y102.5 E8.06004
G1 X133.55 Y132.5 E9.55674
G1 X133.479 Y132.858 E9.57495
G1 X133.283 Y133.201 E9.59466
G1 X133.049 Y133.385 E9.60951
G1 X132.757 Y133.513 E9.62542
G1 X132.5 Y133.55 E9.63837
G1 X102.5 Y133.55 E11.13508
G1 X102.142 Y133.479 E11.15329
G1 X101.799 Y133.283 E11.173
G1 X101.615 Y133.049 E11.18785
G1 X101.487 Y132.757 E11.20375
G1 X101.45 Y132.5 E11.21671
G1 X101.45 Y102.5 E12.71341
G1 X101.521 Y102.142 E12.73162
G1 X101.717 Y101.799 E12.75133
G0 F7500 X102.289 Y102.366
G1 F1500 X102.421 Y102.25 E12.7601
G1 X132.5 Y102.25 E14.26075
G1 X132.634 Y102.289 E14.26771
G1 X132.75 Y102.421 E14.27647
G1 X132.75 Y132.5 E15.77712
G1 X132.711 Y132.634 E15.78409
G1 X132.579 Y132.75 E15.79285
G1 X102.5 Y132.75 E17.2935
G1 X102.366 Y132.711 E17.30046
G1 X102.25 Y132.579 E17.30923
G1 X102.25 Y102.5 E18.80988
G1 X102.289 Y102.366 E18.81684
G0 F7500 X102.025 Y102.065
G1 F1500 X102.309 Y101.882 E18.83369
G1 X102.5 Y101.85 E18.84336
G1 X132.5 Y101.85 E20.34006
G1 X132.746 Y101.905 E20.35264
G1 X132.935 Y102.025 E20.36381
G1 X133.118 Y102.309 E20.38066
G1 X133.15 Y102.5 E20.39033
G1 X133.15 Y132.5 E21.88703
G1 X133.095 Y132.746 E21.89961
G1 X132.975 Y132.935 E21.91078
G1 X132.691 Y133.118 E21.92763
G1 X132.5 Y133.15 E21.93729
G1 X102.5 Y133.15 E23.434
G1 X102.254 Y133.095 E23.44658
G1 X102.065 Y132.975 E23.45775
G1 X101.882 Y132.691 E23.4746
G1 X101.85 Y132.5 E23.48426
G1 X101.85 Y102.5 E24.98097
G1 X101.905 Y102.254 E24.99355
G1 X102.025 Y102.065 E25.00471
G1 F3000 E21.00471
;MESH:EM_Cube-Unlabeled.stl
G0 F7500 X131.5 Y131.5
;TYPE:WALL-INNER
G1 F3000 E25.00471
G1 F1500 X131.5 Y103.5 E26.82072
G1 X103.5 Y103.5 E28.63672
G1 X103.5 Y131.5 E30.45272
G1 X131.5 Y131.5 E32.26873
G0 F7500 X131.9 Y131.9
G1 F1500 X131.9 Y103.1 E34.13662
G1 X103.1 Y103.1 E36.00451
G1 X103.1 Y131.9 E37.8724
G1 X131.9 Y131.9 E39.74028
G0 F7500 X132.3 Y132.3
;TYPE:WALL-OUTER
G1 F1500 X132.3 Y102.7 E41.66006
G1 X102.7 Y102.7 E43.57983
G1 X102.7 Y132.3 E45.49961
G1 X132.3 Y132.3 E47.41938
G0 F7500 X132.3 Y131.9
G0 X131.14 Y131.14
;TYPE:SKIN
G1 F1500 X103.86 Y131.14 E49.18869
G1 X103.86 Y103.86 E50.958
G1 X131.14 Y103.86 E52.7273
G1 X131.14 Y131.14 E54.49661
G1 F3000 E50.49661
G0 F7500 X130.939 Y104.352
G1 F3000 E54.49661
G1 F1500 X130.647 Y104.059 E54.52344
G0 F7500 X130.081 Y104.059
G1 F1500 X130.939 Y104.918 E54.60218
G0 F7500 X130.939 Y105.484
G1 F1500 X129.515 Y104.059 E54.73284
G0 F7500 X128.95 Y104.059
G1 F1500 X130.939 Y106.049 E54.91532
G0 F7500 X130.939 Y106.615
G1 F1500 X128.384 Y104.059 E55.14972
G0 F7500 X127.818 Y104.059
G1 F1500 X130.939 Y107.181 E55.43603
G0 F7500 X130.939 Y107.746
G1 F1500 X127.253 Y104.059 E55.77416
G0 F7500 X126.687 Y104.059
G1 F1500 X130.939 Y108.312 E56.16421
G0 F7500 X130.939 Y108.878
G1 F1500 X126.121 Y104.059 E56.60617
G0 F7500 X125.556 Y104.059
G1 F1500 X130.939 Y109.443 E57.09996
G0 F7500 X130.939 Y110.009
G1 F1500 X124.99 Y104.059 E57.64566
G0 F7500 X124.424 Y104.059
G1 F1500 X130.939 Y110.575 E58.24327
G0 F7500 X130.939 Y111.14
G1 F1500 X123.858 Y104.059 E58.89275
G0 F7500 X123.293 Y104.059
G1 F1500 X130.939 Y111.706 E59.59411
G0 F7500 X130.939 Y112.272
G1 F1500 X122.727 Y104.059 E60.34737
G0 F7500 X122.161 Y104.059
G1 F1500 X130.939 Y112.837 E61.15251
G0 F7500 X130.939 Y113.403
G1 F1500 X121.596 Y104.059 E62.00951
G0 F7500 X121.03 Y104.059
G1 F1500 X130.939 Y113.969 E62.91843
G0 F7500 X130.939 Y114.535
G1 F1500 X120.464 Y104.059 E63.87927
G0 F7500 X119.899 Y104.059
G1 F1500 X130.939 Y115.1 E64.89192
G0 F7500 X130.939 Y115.666
G1 F1500 X119.333 Y104.059 E65.9565
G0 F7500 X118.767 Y104.059
G1 F1500 X130.939 Y116.232 E67.07298
G0 F7500 X130.939 Y116.797
G1 F1500 X118.202 Y104.059 E68.24129
G0 F7500 X117.636 Y104.059
G1 F1500 X130.939 Y117.363 E69.46152
G0 F7500 X130.939 Y117.929
G1 F1500 X117.07 Y104.059 E70.73365
G0 F7500 X116.505 Y104.059
G1 F1500 X130.939 Y118.494 E72.05762
G0 F7500 X130.939 Y119.06
G1 F1500 X115.939 Y104.059 E73.43349
G0 F7500 X115.373 Y104.059
G1 F1500 X130.939 Y119.626 E74.86128
G0 F7500 X130.939 Y120.191
G1 F1500 X114.807 Y104.059 E76.34094
G0 F7500 X114.242 Y104.059
G1 F1500 X130.939 Y120.757 E77.87247
G0 F7500 X130.939 Y121.323
G1 F1500 X113.676 Y104.059 E79.45591
G0 F7500 X113.11 Y104.059
G1 F1500 X130.939 Y121.888 E81.09123
G0 F7500 X130.939 Y122.454
G1 F1500 X112.545 Y104.059 E82.77841
G0 F7500 X111.979 Y104.059
G1 F1500 X130.939 Y123.02 E84.5175
G0 F7500 X130.939 Y123.586
G1 F1500 X111.413 Y104.059 E86.30851
G0 F7500 X110.848 Y104.059
G1 F1500 X130.939 Y124.151 E88.15135
G0 F7500 X130.939 Y124.717
G1 F1500 X110.282 Y104.059 E90.04609
G0 F7500 X109.716 Y104.059
G1 F1500 X130.939 Y125.283 E91.99276
G0 F7500 X130.939 Y125.848
G1 F1500 X109.151 Y104.059 E93.99124
G0 F7500 X108.585 Y104.059
G1 F1500 X130.939 Y126.414 E96.04164
G0 F7500 X130.939 Y126.98
G1 F1500 X108.019 Y104.059 E98.14395
G0 F7500 X107.454 Y104.059
G1 F1500 X130.939 Y127.545 E100.29809
G0 F7500 X130.939 Y128.111
G1 F1500 X106.888 Y104.059 E102.50414
G0 F7500 X106.322 Y104.059
G1 F1500 X130.939 Y128.677 E104.76211
G0 F7500 X130.939 Y129.242
G1 F1500 X105.757 Y104.059 E107.0719
G0 F7500 X105.191 Y104.059
G1 F1500 X130.939 Y129.808 E109.43361
G0 F7500 X130.939 Y130.374
G1 F1500 X104.625 Y104.059 E111.84722
G0 F7500 X104.059 Y104.059
G1 F1500 X130.939 Y130.939 E114.31271
G0 F7500 X130.374 Y130.939
G1 F1500 X104.059 Y104.625 E116.72633
G0 F7500 X104.059 Y105.191
G1 F1500 X129.808 Y130.939 E119.08804
G0 F7500 X129.242 Y130.939
G1 F1500 X104.059 Y105.757 E121.39783
G0 F7500 X104.059 Y106.322
G1 F1500 X128.677 Y130.939 E123.65579
G0 F7500 X128.111 Y130.939
G1 F1500 X104.059 Y106.888 E125.86185
G0 F7500 X104.059 Y107.454
G1 F1500 X127.545 Y130.939 E128.01598
G0 F7500 X126.98 Y130.939
G1 F1500 X104.059 Y108.019 E130.1183
G0 F7500 X104.059 Y108.585
G1 F1500 X126.414 Y130.939 E132.1687
G0 F7500 X125.848 Y130.939
G1 F1500 X104.059 Y109.151 E134.16718
G0 F7500 X104.059 Y109.716
G1 F1500 X125.283 Y130.939 E136.11384
G0 F7500 X124.717 Y130.939
G1 F1500 X104.059 Y110.282 E138.00859
G0 F7500 X104.059 Y110.848
G1 F1500 X124.151 Y130.939 E139.85143
G0 F7500 X123.586 Y130.939
G1 F1500 X104.059 Y111.413 E141.64244
G0 F7500 X104.059 Y111.979
G1 F1500 X123.02 Y130.939 E143.38153
G0 F7500 X122.454 Y130.939
G1 F1500 X104.059 Y112.545 E145.06871
G0 F7500 X104.059 Y113.11
G1 F1500 X121.888 Y130.939 E146.70402
G0 F7500 X121.323 Y130.939
G1 F1500 X104.059 Y113.676 E148.28747
G0 F7500 X104.059 Y114.242
G1 F1500 X120.757 Y130.939 E149.819
G0 F7500 X120.191 Y130.939
G1 F1500 X104.059 Y114.807 E151.29865
G0 F7500 X104.059 Y115.373
G1 F1500 X119.626 Y130.939 E152.72645
G0 F7500 X119.06 Y130.939
G1 F1500 X104.059 Y115.939 E154.10232
G0 F7500 X104.059 Y116.505
G1 F1500 X118.494 Y130.939 E155.42628
G0 F7500 X117.929 Y130.939
G1 F1500 X104.059 Y117.07 E156.69842
G0 F7500 X104.059 Y117.636
G1 F1500 X117.363 Y130.939 E157.91865
G0 F7500 X116.797 Y130.939
G1 F1500 X104.059 Y118.202 E159.08696
G0 F7500 X104.059 Y118.767
G1 F1500 X116.232 Y130.939 E160.20344
G0 F7500 X115.666 Y130.939
G1 F1500 X104.059 Y119.333 E161.26801
G0 F7500 X104.059 Y119.899
G1 F1500 X115.1 Y130.939 E162.28067
G0 F7500 X114.535 Y130.939
G1 F1500 X104.059 Y120.464 E163.2415
G0 F7500 X104.059 Y121.03
G1 F1500 X113.969 Y130.939 E164.15042
G0 F7500 X113.403 Y130.939
G1 F1500 X104.059 Y121.596 E165.00743
G0 F7500 X104.059 Y122.161
G1 F1500 X112.837 Y130.939 E165.81256
G0 F7500 X112.272 Y130.939
G1 F1500 X104.059 Y122.727 E166.56583
G0 F7500 X104.059 Y123.293
G1 F1500 X111.706 Y130.939 E167.26718
G0 F7500 X111.14 Y130.939
G1 F1500 X104.059 Y123.858 E167.91667
G0 F7500 X104.059 Y124.424
G1 F1500 X110.575 Y130.939 E168.51428
G0 F7500 X110.009 Y130.939
G1 F1500 X104.059 Y124.99 E169.05998
G0 F7500 X104.059 Y125.556
G1 F1500 X109.443 Y130.939 E169.55377
G0 F7500 X108.878 Y130.939
G1 F1500 X104.059 Y126.121 E169.99573
G0 F7500 X104.059 Y126.687
G1 F1500 X108.312 Y130.939 E170.38578
G0 F7500 X107.746 Y130.939
G1 F1500 X104.059 Y127.253 E170.72391
G0 F7500 X104.059 Y127.818
G1 F1500 X107.181 Y130.939 E171.01022
G0 F7500 X106.615 Y130.939
G1 F1500 X104.059 Y128.384 E171.24462
G0 F7500 X104.059 Y128.95
G1 F1500 X106.049 Y130.939 E171.4271
G0 F7500 X105.484 Y130.939
G1 F1500 X104.059 Y129.515 E171.55776
G0 F7500 X104.059 Y130.081
G1 F1500 X104.918 Y130.939 E171.6365
G0 F7500 X104.352 Y130.939
G1 F1500 X104.059 Y130.647 E171.66333
G1 F3000 E167.66333
;MESH:NONMESH
G0 F300 X104.059 Y130.647 Z0.6
G0 F7500 X131.5 Y131.5
;TIME_ELAPSED:125.616140
;LAYER:1
M106 S127.5
;TYPE:WALL-INNER
;MESH:EM_Cube-Unlabeled.stl
G1 F3000 E171.66333
G1 F2250 X131.5 Y103.5 E173.47933
G1 X103.5 Y103.5 E175.29534
G1 X103.5 Y131.5 E177.11134
G1 X131.5 Y131.5 E178.92734
G0 F11250 X131.9 Y131.9
G1 F2250 X131.9 Y103.1 E180.79523
G1 X103.1 Y103.1 E182.66312
G1 X103.1 Y131.9 E184.53101
G1 X131.9 Y131.9 E186.3989
G0 F11250 X132.3 Y132.3
;TYPE:WALL-OUTER
G1 F2250 X132.3 Y102.7 E188.31867
G1 X102.7 Y102.7 E190.23845
G1 X102.7 Y132.3 E192.15822
G1 X132.3 Y132.3 E194.078
G0 F11250 X132.3 Y131.9
G0 X131.14 Y131.14
;TYPE:SKIN
G1 F2250 X103.86 Y131.14 E195.8473
G1 X103.86 Y103.86 E197.61661
G1 X131.14 Y103.86 E199.38592
G1 X131.14 Y131.14 E201.15522
G1 F3000 E197.15522
G0 F11250 X104.677 Y104.059
G1 F3000 E201.15522
G1 F2250 X104.059 Y104.677 E201.21191
G0 F11250 X104.059 Y105.243
G1 F2250 X105.243 Y104.059 E201.32051
G0 F11250 X105.809 Y104.059
G1 F2250 X104.059 Y105.809 E201.48102
G0 F11250 X104.059 Y106.375
G1 F2250 X106.375 Y104.059 E201.69345
G0 F11250 X106.94 Y104.059
G1 F2250 X104.059 Y106.94 E201.9577
G0 F11250 X104.059 Y107.506
G1 F2250 X107.506 Y104.059 E202.27387
G0 F11250 X108.072 Y104.059
G1 F2250 X104.059 Y108.072 E202.64195
G0 F11250 X104.059 Y108.637
G1 F2250 X108.637 Y104.059 E203.06185
G0 F11250 X109.203 Y104.059
G1 F2250 X104.059 Y109.203 E203.53367
G0 F11250 X104.059 Y109.769
G1 F2250 X109.769 Y104.059 E204.0574
G0 F11250 X110.334 Y104.059
G1 F2250 X104.059 Y110.334 E204.63296
G0 F11250 X104.059 Y110.9
G1 F2250 X110.9 Y104.059 E205.26043
G0 F11250 X111.466 Y104.059
G1 F2250 X104.059 Y111.466 E205.93981
G0 F11250 X104.059 Y112.031
G1 F2250 X112.031 Y104.059 E206.67102
G0 F11250 X112.597 Y104.059
G1 F2250 X104.059 Y112.597 E207.45414
G0 F11250 X104.059 Y113.163
G1 F2250 X113.163 Y104.059 E208.28918
G0 F11250 X113.728 Y104.059
G1 F2250 X104.059 Y113.728 E209.17604
G0 F11250 X104.059 Y114.294
G1 F2250 X114.294 Y104.059 E210.11481
G0 F11250 X114.86 Y104.059
G1 F2250 X104.059 Y114.86 E211.1055
G0 F11250 X104.059 Y115.425
G1 F2250 X115.425 Y104.059 E212.14802
G0 F11250 X115.991 Y104.059
G1 F2250 X104.059 Y115.991 E213.24244
G0 F11250 X104.059 Y116.557
G1 F2250 X116.557 Y104.059 E214.38878
G0 F11250 X117.123 Y104.059
G1 F2250 X104.059 Y117.123 E215.58704
G0 F11250 X104.059 Y117.688
G1 F2250 X117.688 Y104.059 E216.83712
G0 F11250 X118.254 Y104.059
G1 F2250 X104.059 Y118.254 E218.13911
G0 F11250 X104.059 Y118.82
G1 F2250 X118.82 Y104.059 E219.49302
G0 F11250 X119.385 Y104.059
G1 F2250 X104.059 Y119.385 E220.89876
G0 F11250 X104.059 Y119.951
G1 F2250 X119.951 Y104.059 E222.3564
G0 F11250 X120.517 Y104.059
G1 F2250 X104.059 Y120.517 E223.86596
G0 F11250 X104.059 Y121.082
G1 F2250 X121.082 Y104.059 E225.42735
G0 F11250 X121.648 Y104.059
G1 F2250 X104.059 Y121.648 E227.04065
G0 F11250 X104.059 Y122.214
G1 F2250 X122.214 Y104.059 E228.70586
G0 F11250 X122.779 Y104.059
G1 F2250 X104.059 Y122.779 E230.42289
G0 F11250 X104.059 Y123.345
G1 F2250 X123.345 Y104.059 E232.19185
G0 F11250 X123.911 Y104.059
G1 F2250 X104.059 Y123.911 E234.01271
G0 F11250 X104.059 Y124.476
G1 F2250 X124.476 Y104.059 E235.8854
G0 F11250 X125.042 Y104.059
G1 F2250 X104.059 Y125.042 E237.81
G0 F11250 X104.059 Y125.608
G1 F2250 X125.608 Y104.059 E239.78652
G0 F11250 X126.174 Y104.059
G1 F2250 X104.059 Y126.174 E241.81495
G0 F11250 X104.059 Y126.739
G1 F2250 X126.739 Y104.059 E243.89521
G0 F11250 X127.305 Y104.059
G1 F2250 X104.059 Y127.305 E246.02738
G0 F11250 X104.059 Y127.871
G1 F2250 X127.871 Y104.059 E248.21146
G0 F11250 X128.436 Y104.059
G1 F2250 X104.059 Y128.436 E250.44737
G0 F11250 X104.059 Y129.002
G1 F2250 X129.002 Y104.059 E252.73519
G0 F11250 X129.568 Y104.059
G1 F2250 X104.059 Y129.568 E255.07493
G0 F11250 X104.059 Y130.133
G1 F2250 X130.133 Y104.059 E257.46649
G0 F11250 X130.699 Y104.059
G1 F2250 X104.059 Y130.699 E259.90997
G0 F11250 X104.385 Y130.939
G1 F2250 X130.939 Y104.385 E262.34555
G0 F11250 X130.939 Y104.95
G1 F2250 X104.95 Y130.939 E264.72932
G0 F11250 X105.516 Y130.939
G1 F2250 X130.939 Y105.516 E267.06116
G0 F11250 X130.939 Y106.082
G1 F2250 X106.082 Y130.939 E269.3411
G0 F11250 X106.647 Y130.939
G1 F2250 X130.939 Y106.647 E271.56921
G0 F11250 X130.939 Y107.213
G1 F2250 X107.213 Y130.939 E273.74541
G0 F11250 X107.779 Y130.939
G1 F2250 X130.939 Y107.779 E275.86969
G0 F11250 X130.939 Y108.345
G1 F2250 X108.345 Y130.939 E277.94206
G0 F11250 X108.91 Y130.939
G1 F2250 X130.939 Y108.91 E279.9626
G0 F11250 X130.939 Y109.476
G1 F2250 X109.476 Y130.939 E281.93123
G0 F11250 X110.042 Y130.939
G1 F2250 X130.939 Y110.042 E283.84795
G0 F11250 X130.939 Y110.607
G1 F2250 X110.607 Y130.939 E285.71284
G0 F11250 X111.173 Y130.939
G1 F2250 X130.939 Y111.173 E287.52582
G0 F11250 X130.939 Y111.739
G1 F2250 X111.739 Y130.939 E289.28688
G0 F11250 X112.304 Y130.939
G1 F2250 X130.939 Y112.304 E290.99612
G0 F11250 X130.939 Y112.87
G1 F2250 X112.87 Y130.939 E292.65344
G0 F11250 X113.436 Y130.939
